build/img/icon-insta.svg

<svg width="25" height="25" viewBox="0 0 25 25" fill="none" xmlns="http://www.w3.org/2000/svg">
<path d="M17.5362 0.576782H6.72405C3.05229 0.576782 0.0650635 3.55884 0.0650635 7.22409V18.0171C0.0650635 21.6825 3.05229 24.6644 6.72405 24.6644H17.5362C21.2083 24.6644 24.1955 21.6823 24.1955 18.0171V7.22409C24.1956 3.55884 21.2083 0.576782 17.5362 0.576782ZM22.0547 18.0171C22.0547 20.504 20.0277 22.5272 17.5364 22.5272H6.72405C4.23282 22.5273 2.20603 20.504 2.20603 18.0171V7.22409C2.20603 4.73728 4.23282 2.71395 6.72405 2.71395H17.5362C20.0276 2.71395 22.0545 4.73728 22.0545 7.22409V18.0171H22.0547Z" fill="white"/>
<path d="M12.1303 6.41418C8.70173 6.41418 5.91248 9.19849 5.91248 12.6209C5.91248 16.0433 8.70173 18.8274 12.1303 18.8274C15.5588 18.8274 18.3481 16.0433 18.3481 12.6209C18.3481 9.19849 15.5588 6.41418 12.1303 6.41418ZM12.1303 16.6901C9.8824 16.6901 8.05345 14.8647 8.05345 12.6208C8.05345 10.3768 9.88226 8.55121 12.1303 8.55121C14.3783 8.55121 16.2071 10.3768 16.2071 12.6208C16.2071 14.8647 14.3782 16.6901 12.1303 16.6901Z" fill="white"/>
<path d="M18.6086 4.60181C18.1961 4.60181 17.7909 4.76851 17.4996 5.06059C17.2069 5.35124 17.0386 5.75588 17.0386 6.16906C17.0386 6.58097 17.207 6.98546 17.4996 7.27754C17.7908 7.5682 18.1961 7.73632 18.6086 7.73632C19.0225 7.73632 19.4265 7.5682 19.7191 7.27754C20.0117 6.98546 20.1787 6.58082 20.1787 6.16906C20.1787 5.75588 20.0117 5.35124 19.7191 5.06059C19.4279 4.76851 19.0225 4.60181 18.6086 4.60181Z" fill="white"/>
</svg>

<svg width="25" height="25" fill="none" xmlns="http://www.w3.org/2000/svg"><path d="M17.536.577H6.724C3.052.577.065 3.559.065 7.224v10.793c0 3.666 2.987 6.647 6.659 6.647h10.812c3.672 0 6.66-2.982 6.66-6.647V7.224c0-3.665-2.988-6.647-6.66-6.647zm4.519 17.44a4.52 4.52 0 01-4.519 4.51H6.724a4.52 4.52 0 01-4.518-4.51V7.224a4.52 4.52 0 014.518-4.51h10.812a4.52 4.52 0 014.518 4.51v10.793z" fill="#fff"/><path d="M12.13 6.414c-3.428 0-6.218 2.784-6.218 6.207 0 3.422 2.79 6.206 6.218 6.206 3.429 0 6.218-2.784 6.218-6.206 0-3.423-2.79-6.207-6.218-6.207zm0 10.276a4.078 4.078 0 01-4.077-4.07 4.078 4.078 0 018.154 0 4.078 4.078 0 01-4.077 4.07zm6.479-12.088a1.573 1.573 0 00-1.57 1.567c0 .412.168.816.46 1.109.292.29.697.458 1.11.458a1.59 1.59 0 001.11-.458 1.57 1.57 0 000-2.217 1.578 1.578 0 00-1.11-.46z" fill="#fff"/></svg>
